X:1
T:Alabama Jigger.
T:Alabama Jigger.
T:(CHARACTER-RAG.)
T:By EDW. B. CLAYPOOLE.
T:Copyright 1913 by Edward B. Marks Music Corporation
T:Copyright 1913 by Edward B. Marks Music Corporation
T:Copyright 1913 by Edward B. Marks Music Corporation
T:Copyright 1913 by Edward B. Marks Music Corporation
C:By EDW. B. CLAYPOOLE.
Z:Copyright 1913 by Edward B. Marks Music Corporation
%%score { ( 1 3 ) | ( 2 4 ) }
L:1/8
Q:1/4=180
M:4/4
K:C
V:1 treble nm="Piano" snm="Pno."
V:3 treble 
V:2 bass 
V:4 bass 
V:1
"^Moderato."!f! G<ce/ | [Gcg]2 [^Fc^f]2 [=Fc=f]2 [Ece]2 | [G^c^d] [Gce]2 [GAc]- [GAc]>AB>c | %3
 [^F=ce][Fcd][Fc][Fce]- [Fce][Fcd] [=Fc]2 | [FBd]2 z2 !^![GBdg] || (G<ce/) |: %6
 [Gcg]2 [^Fc^f]2 [=Fc=f]2 [Ece]2 | [G^c^d] [Gce]2 [GAc]- [GAc]>AB>c | %8
 [D^Fd]2 [EG^c]2 [DA=c]2 [DGB]2 | [C^F^G] [CFA]2 [DFAd]- [DFAd]2 [FA]>[FA] | (B>dB>G) (A>cB>G) | %11
 [FA]2 [FB][FA]- [FA][FG][FA][FB] | [EGc]2 [FGd]2 [Gce]2 [G^ceg]2 | %13
 [A^fa] [Bgb]2 [=FBd]- [FBd]>[Ee][F=f]>[^F^f] | [Gcg]2 [^Fc^f]2 [=Fc=f]2 [Ece]2 | %15
 [G^c^d] [Gce]2 [GAc]- [GAc]>AB>c | [D^Fd]2 [EG^c]2 [DA=c]2 [DGB]2 | %17
 [C^F^G] [CFA]2 [DFAd]- [DFAd]2 [FA]>[FA] | (B>dB>G) (A>cB>G) | [Ec]de[G^cg]- [Gcg]2 [Acea]2 | %20
 [^FA]3 [=FBe]- [FBe]^d [FBe]2 |1 [EGc]4- [EGc]>[Ee][Ff]>[^F^f] :|2 %22
 [EGc]4- [EGc]!f![Gce][^Fc^d][Gce] |: ([Bg][ABf][GBe])[FBd]- [FBd][E^A^c] [FBd]2 | f3 f- fe d2 | %25
 [^Fc^d] [Gce]2 [eg]- [eg]4 | ([Acg][Af][Ae])[_Acg]- [Acg]f [Ad]2 | %27
 ([Gce][^Fc^d][Gce])[_B^cg]- [Bcg][Acf] [Gce]2 | [^F=cd] [Fce]2 [FA]- [FA]4 | %29
 ([=FBd][FB^c][FBd])[ABf]- [ABf][GBe] [FBd]2 | [^Fc^d] [Gce]2 [EG]- [EG]([Gce][^Fc^d][Gce]) | %31
 ([Bg][ABf][GBe])[FBd]- [FBd][E^A^c] [FBd]2 | f3 f- fe d2 | [^Fc^d] [Gce]2 [eg]- [eg]4 | %34
 ([Acg][Af][Ae])[_Acg]- [Acg]f [Ad]2 | ([Gce][^Fc^d][Gce])[_B^cg]- [Bcg][Acf] [Gce]2 | %36
 [^F=cd][Fce][FA][=FBd]- [FBd]e [FG]2 |1 [EGc]!f!EFG- G[Gce][^Fc^d][Gce] :|2 %38
 [EGc]4- [EGc]>!mf!(Gc>e) || [Gcg]2 [^Fc^f]2 [=Fc=f]2 [Ece]2 | [G^c^d] [Gce]2 [GAc]- [GAc]>AB>c | %41
 [D^Fd]2 [EG^c]2 [DA=c]2 [DGB]2 | [C^F^G] [CFA]2 [DFAd]- [DFAd]2 [FA]>[FA] | (B>dB>G) (A>cB>G) | %44
 [FA]2 [FB][FA]- [FA][FG][FA][FB] | [EGc]2 [FGd]2 [Gce]2 [G^ceg]2 | %46
 [A^fa] [Bgb]2 [=FBd]- [FBd]>[Ee][F=f]>[^F^f] | [Gcg]2 [^Fc^f]2 [=Fc=f]2 [Ece]2 | %48
 [G^c^d] [Gce]2 [GAc]- [GAc]>AB>c | [D^Fd]2 [EG^c]2 [DA=c]2 [DGB]2 | %50
 [C^F^G] [CFA]2 [DFAd]- [DFAd]2 [FA]>[FA] | (B>dB>G) (A>cB>G) | [Ec]de[G^cg]- [Gcg]2 [Acea]2 | %53
 [^FA]3 [=FBe]- [FBe]^d [FBe]2 | [EGc]4 !^![cegc']z/(c<d)(e/ |: %55
[K:F][M:4/4]"^TRIO."!mp!!f! [Acf]ed)"_-"[Ace]- [Ace](dcA) | c>A G2- G>(cd>e) | %57
 [Acf]ed[Ace]- [Ace](dcA) | c>A G2- G>(^FG>^G) | (A^GA=B-) B^A B2 | (c=Bcd-) d^c d2 | %61
 [Ge] [^Ge]2 [Ae]- [Ae](dcB) | [^Fc] [=Fd]2 [Ec]- [Ec]z/(c<de/) | ([Acf]ed)[Ace]- [Ace](dcA) | %64
 c>A G2- G>(cd>e) | [Acf]ed[Ace]- [Ace](dcA) | c>A G2- G>(^FG>^G) | (A^GAA-) A^G A2 | %68
 (A^GA=B-) B4 | c=Bc_d- dc d2 |1 (=d^cde-) (ez/!f!=c<de/) :|2 (=d^cde-) (e=cde) || %72
 [Acf][Acf][Acf][Acf]- [Acf][Acf][Acf][Acf] | [GB_df][GBdf][GBdf][GBdf]- [GBdf][GBdf] [GBdf]2 | %74
 [A,CF][A,CF][A,CF][A,CF]- [A,CF][A,CF][A,CF][A,CF] | %75
 [G,B,_DF][G,B,DF][G,B,DF][G,B,DF]- [G,B,DF][G,B,DF] [G,B,DF]2 |"^Drum." [A,CF]2 (3ccc c2 c2 | %77
 z2 !^![cegc']2 !^![fac'f'] z/ |] %78
V:2
 z2 z/ | [E,E]2 [^D,^D]2 [=D,=D]2 [C,C]2 | A,,2 [G,A,^C]2 A,,2 [G,A,C]2 | %3
 D,,2 [D,^F,=C]2 [A,,A,]2 [_A,,_A,]2 | [G,,G,]2 z2 !^![G,,G,] || z/ z2 |: %6
 [E,E]2 [^D,^D]2 [=D,=D]2 [C,C]2 | A,,2 [G,A,^C]2 A,,2 [G,A,C]2 | %8
 [D,,D,]2 [E,,E,]2 [^F,,^F,]2 [G,,G,]2 | [D,,D,]2 [D,^F,C]2 D,,2 [D,F,C]2 | %10
 G,,2 [=F,G,B,]2 G,,2 [F,G,B,]2 | D,2 [F,G,B,]2 G,,2 [F,G,B,]2 | %12
 [C,C]2 [B,,B,]2 [_B,,_B,]2 [A,,A,]2 | D,2 [^F,A,C]2 G,,2 [=F,G,B,]2 | %14
 [E,E]2 [^D,^D]2 [=D,=D]2 [C,C]2 | A,,2 [G,A,^C]2 A,,2 [G,A,C]2 | %16
 [D,,D,]2 [E,,E,]2 [^F,,^F,]2 [G,,G,]2 | [D,,D,]2 [D,^F,C]2 D,,2 [D,F,C]2 | %18
 G,,2 [=F,G,B,]2 G,,2 [F,G,B,]2 | C,2 [E,G,C]2 A,,2 [G,A,^C]2 | D,2 [^F,A,=C]2 G,,2 [=F,G,B,]2 |1 %21
 [C,C]2 !^![G,,G,]2 !^![C,,C,] z z2 :|2 [C,C]2 [G,,G,]2 [C,,C,] z z2 |: %23
 D,2 [F,G,B,]2 G,,2 [F,G,B,]2 | D,2 [F,G,B,]2 G,,2 [F,G,B,]2 | C,2 [E,G,C]2 [C,C][D,D] [E,E]2 | %26
 F,2 [A,C]2 E,2 [F,_A,C]2 | G,,2 [E,G,C]2 A,,2 [G,A,^C]2 | D,,2 [D,^F,=C]2 [D,,D,]2 [C,,C,]2 | %29
 [B,,,B,,]2 [=F,G,B,]2 G,,2 [F,G,B,]2 | C,2 [E,G,C]2 G,,2 [E,G,C]2 | D,2 [F,G,B,]2 G,,2 [F,G,B,]2 | %32
 D,2 [F,G,B,]2 G,,2 [F,G,B,]2 | C,2 [E,G,C]2 [C,C][D,D] [E,E]2 | F,2 [A,C]2 E,2 [F,_A,C]2 | %35
 G,,2 [E,G,C]2 A,,2 [G,A,^C]2 | D,2 [^F,A,=C]2 G,,2 [=F,G,B,]2 |1 C,E,F,G,- G,2 G,,2 :|2 %38
 [C,C]2 !^![G,,G,]2 !^![C,,C,] z z2 || [E,E]2 [^D,^D]2 [=D,=D]2 [C,C]2 | %40
 A,,2 [G,A,^C]2 A,,2 [G,A,C]2 | [D,,D,]2 [E,,E,]2 [^F,,^F,]2 [G,,G,]2 | %42
 [D,,D,]2 [D,^F,C]2 D,,2 [D,F,C]2 | G,,2 [=F,G,B,]2 G,,2 [F,G,B,]2 | D,2 [F,G,B,]2 G,,2 [F,G,B,]2 | %45
 [C,C]2 [B,,B,]2 [_B,,_B,]2 [A,,A,]2 | D,2 [^F,A,C]2 G,,2 [=F,G,B,]2 | %47
 [E,E]2 [^D,^D]2 [=D,=D]2 [C,C]2 | A,,2 [G,A,^C]2 A,,2 [G,A,C]2 | %49
 [D,,D,]2 [E,,E,]2 [^F,,^F,]2 [G,,G,]2 | [D,,D,]2 [D,^F,C]2 D,,2 [D,F,C]2 | %51
 G,,2 [=F,G,B,]2 G,,2 [F,G,B,]2 | C,2 [E,G,C]2 A,,2 [G,A,^C]2 | D,2 [^F,A,=C]2 G,,2 [=F,G,B,]2 | %54
 [C,C]2 !^![G,,G,]2 !^![C,,C,] z z2 |:[K:F][M:4/4] F,2 [A,CF]2 C,2 [A,CF]2 | %56
 G,2 [B,CE]2 C,2 [B,CE]2 | F,2 [A,CF]2 C,2 [A,CF]2 | G,2 [B,CE]2 C,2 [B,CE]2 | z2 F,2 z2 E,2 | %60
 z2 A,2 z2 _A,2 | G,,2 [E,G,C]2 G,,2 [E,G,C]2 | [D,,D,]2 [G,,G,]2 [C,G,] z z2 | %63
 F,2 [A,CF]2 C,2 [A,CF]2 | G,2 [B,CE]2 C,2 [B,CE]2 | F,2 [A,CF]2 C,2 [A,CF]2 | %66
 G,2 [B,CE]2 C,2 [B,CE]2 | z2 F,2 z2 E,2 | z2 A,2 z2 _A,2 | z2 D,2 z2 =B,,2 |1 %70
 z2 _B,,2 [G,,,G,,]2 [C,,C,]2 :|2 z2 _B,,2 C,,2 [B,CE]2 || %72
"^marcato" [F,F][E,E][D,D][E,E]- [E,E][D,D][C,C][A,,A,] | %73
 [B,,B,][A,,A,][G,,G,][B,,B,]- [B,,B,][A,,A,] [G,,G,]2 | %74
 [F,,F,][E,,E,][D,,D,][E,,E,]- [E,,E,][D,,D,][C,,C,][A,,,A,,] | %75
 [B,,,B,,][A,,,A,,][G,,,G,,][B,,,B,,]- [B,,,B,,][A,,,A,,] [G,,,G,,]2 | [F,,,F,,]2 z2 z4 | %77
 z2 !^![C,C]2 !^![F,,F,] z/ |] %78
V:3
 x5/2 | x8 | x8 | x8 | x5 || x5/2 |: x8 | x8 | x8 | x8 | =F4 F4 | x8 | x8 | x8 | x8 | x8 | x8 | %17
 x8 | =F4 F4 | x8 | x8 |1 x8 :|2 x8 |: x8 | (^GA^A[=AB]-) [AB][=GB] [FB]2 | x3 c- cB _B2 | x8 | %27
 x8 | x8 | x8 | x8 | x8 | (^GA^A[=AB]-) [AB][=GB] [FB]2 | x3 c- cB _B2 | x8 | x8 | x8 |1 x8 :|2 %38
 x8 || x8 | x8 | x8 | x8 | =F4 F4 | x8 | x8 | x8 | x8 | x8 | x8 | x8 | =F4 F4 | x8 | x8 | x8 |: %55
[K:F][M:4/4] x8 | x8 | x8 | x8 | [CF]3 [D^G]- [DG][DG] [DG]2 | [EA]3 [^Fc]- [Fc]F [F=c]2 | x8 | %62
 x8 | x8 | x8 | x8 | x8 | [CF]3 [^C=G]- [CG]2 [=C=G]2 | [DF]3 [F^G]- [FG]4 | %69
 [FA]3 [F_A]- [FA]2 [FA]2 |1 [FG]3 [EB]- [EB] z z2 :|2 [FG]3 [EB]- [EB] z z2 || x8 | x8 | x8 | x8 | %76
 x2 z2 z4 | x11/2 |] %78
V:4
 x5/2 | x8 | x8 | x8 | x5 || x5/2 |: x8 | x8 | x8 | x8 | x8 | x8 | x8 | x8 | x8 | x8 | x8 | x8 | %18
 x8 | x8 | x8 |1 x8 :|2 x8 |: x8 | x8 | x8 | x8 | x8 | x8 | x8 | x8 | x8 | x8 | x8 | x8 | x8 | %36
 x8 |1 x8 :|2 x8 || x8 | x8 | x8 | x8 | x8 | x8 | x8 | x8 | x8 | x8 | x8 | x8 | x8 | x8 | x8 | %54
 x8 |:[K:F][M:4/4] x8 | x8 | x8 | x8 | F,,4 E,,4 | (A,,4 _A,,4) | x8 | x8 | x8 | x8 | x8 | x8 | %67
 (F,,4 (E,,4) | (A,,4) _A,,4) | (C,,4 (=B,,,4) |1 _B,,,4) x4 :|2 _B,,,4 x4 || x8 | x8 | x8 | x8 | %76
 x8 | x11/2 |] %78

